icons/24x24_image_filled.svg

<svg xmlns="http://www.w3.org/2000/svg" width="24" height="24" viewBox="0 0 24 24">
  <path fill-rule="evenodd" d="M6,3 L18,3 C19.6568542,3 21,4.34314575 21,6 L21,18 C21,19.6568542 19.6568542,21 18,21 L6,21 C4.34314575,21 3,19.6568542 3,18 L3,6 C3,4.34314575 4.34314575,3 6,3 Z M10.5,14.4653157 L9,12 L6,17 L18,17 L13.5,8 L10.5,14.4653157 Z M8.5,10 C9.328,10 10,9.328 10,8.5 C10,7.671 9.328,7 8.5,7 C7.672,7 7,7.671 7,8.5 C7,9.328 7.672,10 8.5,10 Z"/>
</svg>

<svg width="24" height="24" fill="none" xmlns="http://www.w3.org/2000/svg"><path fill-rule="evenodd" clip-rule="evenodd" d="M6 3h12a3 3 0 0 1 3 3v12a3 3 0 0 1-3 3H6a3 3 0 0 1-3-3V6a3 3 0 0 1 3-3Zm4.5 11.465L9 12l-3 5h12l-4.5-9-3 6.465ZM8.5 10a1.5 1.5 0 1 0-.001-3.001A1.5 1.5 0 0 0 8.5 10Z" fill="#000"/></svg>
